X:68
T:C-Biscuit
C:Ricky Skaggs solo
A:Everything is gonna work out fine
N:Transcribed by Philippe Colleu
R:bluegrass
L:1/8
Q:1/4=155
M:4/4
K:C
(3"C"gze (3czg (3"G#"^gz^d (3cz^G | (3"G9"fzd B/d/B/(3G (3zzE (3DzE | (3FzG (3AzB (3czB (3dz^d | "C"e2 ^d2 "G7"=dG3 | 
|(3"C"gze (3czg (3"G#"^gz^d (3cz^G | (3"G9"fzd B/d/B/(3G (3zzE (3DzE | (3FzG (3Az_B (3=Bzc (3dz^d | 
|(3"C"ezc (3"G7"GzE (3"C"czz (3zza | (3"C"gze (3cz^g (3"G#"^fz^d (3Bz=g | (3"G9"fzd (3BzG (3FzD (3FzE | (3zzz (3czA (3zzc (3dz^d | 
|(3"C"ezd (3^dze (3"G7"=dz^d (3eze | (3"C"gza (3^dze (3"G#"czA (3GzF | (3"G9"Gz^G (3Az^D (3Ez=G (3^Fz=F | (3^DzE (3czD (3=DzC (3G,zG, | 
|"C"(3CEG "G7"A2 "C"[c4G4] | (3"F"FzG (3Azc z2 (3zzE | (3"E7"^GzB (3dze (3^gz^f (3zz=f | "F"(3zzg (3az_b (3azf (3gze | 
(3"C"^dze (3=dzc (3zzz (3^fzg | (3"D"^gza (3zz=g (3fz^f (3dzB | (3"D7"d^fa (3bzd' z4 | "G"(3zzg (3zz_B (3AzG (3EzD | 
|"G7"(3A,B,D (3GzF z4 | (3"C"gze (3czg (3"G#"^gz^d (3cz^G | (3"G9"fzd (3BzG (3zzD (3EzF | (3zzG (3AzB (3czB (3dz^d | 
|(3"C"eze ^d2 "G7"=dG3 | "C"(3G,zA, (3CzE "G#"(3G,z_B, (3^CzF | "G9"(3DzF (3Azc (3^Dz^F (3Azc | (3dz^d (3ezf (3ezc (3AzG | "C"(3czG "G7"(3^DzE "C"[c4E4C4] | 

